src/resources/assets/archive.svg

<svg xmlns="http://www.w3.org/2000/svg" width="16" height="16"><g fill="#ddd"><path d="M 7 7 C 6.722656 7 6.5 7.222656 6.5 7.5 C 6.5 7.777344 6.722656 8 7 8 L 9 8 C 9.277344 8 9.5 7.777344 9.5 7.5 C 9.5 7.222656 9.277344 7 9 7 Z M 7 7"/><path d="M 2 5 C 2 5.550781 2.449219 6 3 6 L 3 12 C 3 13.105469 3.894531 14 5 14 L 11 14 C 12.105469 14 13 13.105469 13 12 L 13 6 C 13.550781 6 14 5.550781 14 5 L 14 3 C 14 2.449219 13.550781 2 13 2 L 3 2 C 2.449219 2 2 2.449219 2 3 Z M 13 3 L 13 5 L 3 5 L 3 3 Z M 4 6 L 12 6 L 12 12 C 12 12.550781 11.550781 13 11 13 L 5 13 C 4.449219 13 4 12.550781 4 12 Z M 4 6"/></g></svg>

<svg xmlns="http://www.w3.org/2000/svg" width="16" height="16"><g fill="#ddd"><path d="M7 7c-.277 0-.5.223-.5.5s.223.5.5.5h2c.277 0 .5-.223.5-.5S9.277 7 9 7zm0 0"/><path d="M2 5c0 .55.45 1 1 1v6c0 1.105.895 2 2 2h6c1.105 0 2-.895 2-2V6c.55 0 1-.45 1-1V3c0-.55-.45-1-1-1H3c-.55 0-1 .45-1 1zm11-2v2H3V3zM4 6h8v6c0 .55-.45 1-1 1H5c-.55 0-1-.45-1-1zm0 0"/></g></svg>
